X:1
T:Jurassic Park
T:Jurassic Park
L:1/8
M:4/4
K:C
V:1 treble nm="Violin" snm="Vln."
V:1
 C6 CB, | C6 CB, | C2 D2 D2 F2 | F6 EC | D2 B,2 G,2 EC | D6 GC | F2 E2 E2 D2 | D8 | C4 B,2 CB, | %9
 C6 CB, | C6 CB, | C2 D2 D2 F2 | F6 EC | D2 B,2 G,2 EC | D6 GC | F2 E2 E2 D2 | D8 | C4 B,2 cB | %18
 c6 cB | c6 cB | c2 G2 g2 fe | f6 gd | f2 e2 d2 gd | f6 gd | f2 e2 d4 | B6 cB | c2 A2 G2 cB | %27
 c2 A2 G2 cB | Bc c2 G2 c2 | B6 cB | c2 A2 G2 cB | c2 A2 G2 cB | Bc c2 G2 c2 | c4 B4 | c8 | c8 | %36
 c4 C4 | C8 |] %38

